icons/SVG/vierenschutz_icon.svg

<?xml version="1.0" encoding="UTF-8"?>
<svg width="300px" height="260px" viewBox="0 0 300 260" version="1.1" xmlns="http://www.w3.org/2000/svg" xmlns:xlink="http://www.w3.org/1999/xlink">
    <!-- Generator: Sketch 42 (36781) - http://www.bohemiancoding.com/sketch -->
    <title>vierenschutz_icon</title>
    <desc>Created with Sketch.</desc>
    <defs></defs>
    <g id="Page-1" stroke="none" stroke-width="1" fill="none" fill-rule="evenodd">
        <g id="vierenschutz_icon" fill="#1A1918">
            <g id="VirusProtection_Icon">
                <path d="M102.867052,107.728328 C102.996419,109.778679 103.173275,113.298454 103.448712,116.811386 C105.775022,146.391762 119.036594,169.221912 145.280371,184.132163 C148.563996,185.996474 151.332445,185.991912 154.591834,184.129231 C174.697402,172.635797 188.472511,156.093541 193.335066,133.437702 C195.900459,121.477376 196.40679,109.055697 197.380808,96.8066992 C197.519017,95.0622882 195.437031,92.1270251 193.69369,91.413817 C180.247729,85.9150451 166.662249,80.7525138 153.03583,75.7098822 C151.238777,75.0448947 148.769017,75.0970251 146.950022,75.750609 C136.229279,79.5958722 125.485611,83.4274511 114.984956,87.8161729 C99.4367031,94.3161729 102.365306,89.6364987 102.867052,107.728328 L102.867052,107.728328 Z M209.338559,96.1195564 C209.338559,96.1195564 207.829061,123.50101 204.601769,136.707576 C197.668362,165.076248 180.096747,185.277075 153.082009,196.954268 C150.975459,197.86492 147.629934,197.451135 145.434301,196.430684 C112.982882,181.338303 95.8222926,155.374469 92.0568996,120.413591 C90.9276419,109.925947 91.2197817,99.2913609 90.6335371,88.7349699 C90.4367031,85.1725138 91.8679258,83.5238922 95.114869,82.3268496 C112.264323,76.0031153 129.315524,69.4144937 146.479389,63.1311604 C148.479825,62.3971003 151.209301,62.323792 153.191725,63.049381 C170.539323,69.4040677 187.760502,76.094995 205.100568,82.4617368 C208.479498,83.7014612 209.38441,88.9477268 209.38441,88.9477268 L209.338559,95.9947694 L209.338559,96.1195564 Z" id="Fill-1"></path>
                <path d="M182.64524,97.328817 C161.172969,113.583704 140.841092,128.977464 119.325917,145.262977 C117.491528,140.014105 115.22024,135.671323 114.537052,131.093955 C113.178537,122.008617 112.472096,112.80403 112.041092,103.623228 C111.954956,101.804857 113.890873,98.8735038 115.612598,98.1570376 C126.130284,93.7810226 136.843166,89.8647318 147.527227,85.8907719 C148.716419,85.4483158 150.301572,85.1472632 151.415764,85.555183 C161.513253,89.2492682 171.548843,93.1176642 182.64524,97.328817" id="Fill-3"></path>
                <path d="M125.311638,153.79909 C146.062074,138.088313 166.48631,122.626133 187.864585,106.440318 C187.339913,125.896985 184.730306,143.623902 171.898428,157.898489 C166.48631,163.919541 159.736965,168.808388 153.262402,173.780644 C151.868188,174.851922 148.721463,174.786434 146.916223,174.010343 C139.094279,170.648915 130.054323,162.001145 125.311638,153.79909" id="Fill-5"></path>
                <path d="M80.3781878,249.963381 L219.622074,249.963381 L289.24369,130.000098 L219.622074,10.0361629 L80.3781878,10.0361629 L10.7562445,130.000098 L80.3781878,249.963381 Z M222.458319,259.737817 L77.5419432,259.737817 C75.7868122,259.737817 74.1649782,258.806313 73.2875764,257.294208 L0.829388646,132.444033 C-0.0483406114,130.931602 -0.0483406114,129.068594 0.829388646,127.556489 L73.2875764,2.70533584 C74.1649782,1.19323058 75.7868122,0.261726817 77.5419432,0.261726817 L222.458319,0.261726817 C224.21345,0.261726817 225.834956,1.19323058 226.712686,2.70533584 L299.170546,127.556489 C300.048275,129.068594 300.048275,130.931602 299.170546,132.444033 L226.712686,257.294208 C225.834956,258.806313 224.21345,259.737817 222.458319,259.737817 L222.458319,259.737817 Z" id="Fill-7"></path>
            </g>
        </g>
    </g>
</svg>

<svg width="300" height="260" viewBox="0 0 300 260" xmlns="http://www.w3.org/2000/svg"><title>vierenschutz_icon</title><g fill="#57B8BA" fill-rule="evenodd"><path d="M102.867 107.728c.13 2.05.306 5.57.582 9.083 2.326 29.58 15.588 52.41 41.831 67.321 3.284 1.864 6.052 1.86 9.312-.003 20.105-11.493 33.88-28.035 38.743-50.691 2.565-11.96 3.072-24.382 4.046-36.631.138-1.745-1.944-4.68-3.687-5.393-13.446-5.499-27.032-10.661-40.658-15.704-1.797-.665-4.267-.613-6.086.04-10.72 3.846-21.464 7.677-31.965 12.066-15.548 6.5-12.62 1.82-12.118 19.912zM209.34 96.12s-1.51 27.381-4.737 40.588c-6.934 28.368-24.505 48.57-51.52 60.246-2.107.91-5.452.497-7.648-.523-32.451-15.093-49.612-41.057-53.377-76.017-1.13-10.488-.837-21.123-1.423-31.679-.197-3.562 1.234-5.211 4.48-6.408 17.15-6.324 34.202-12.913 51.365-19.196 2-.734 4.73-.807 6.713-.082 17.347 6.355 34.569 13.046 51.909 19.413 3.378 1.24 4.283 6.486 4.283 6.486l-.045 7.047v.125z"/><path d="M182.645 97.329c-21.472 16.255-41.804 31.648-63.32 47.934-1.833-5.249-4.105-9.592-4.788-14.169-1.358-9.085-2.065-18.29-2.496-27.47-.086-1.82 1.85-4.75 3.572-5.467 10.517-4.376 21.23-8.292 31.914-12.266 1.19-.443 2.775-.744 3.889-.336 10.097 3.694 20.133 7.563 31.23 11.774M125.312 153.8c20.75-15.712 41.174-31.174 62.553-47.36-.525 19.457-3.135 37.184-15.967 51.458-5.412 6.022-12.161 10.91-18.636 15.883-1.394 1.07-4.54 1.005-6.346.23-7.822-3.362-16.862-12.01-21.604-20.212"/><path d="M80.378 249.963h139.244L289.244 130 219.622 10.036H80.378L10.756 130l69.622 119.963zm142.08 9.775H77.542a4.917 4.917 0 0 1-4.254-2.444L.829 132.444a4.865 4.865 0 0 1 0-4.888L73.288 2.706A4.917 4.917 0 0 1 77.542.261h144.916c1.755 0 3.377.931 4.255 2.443l72.458 124.851a4.865 4.865 0 0 1 0 4.888l-72.458 124.85a4.917 4.917 0 0 1-4.255 2.444z"/></g></svg>
